X:1
T:Mighty to Save
T:Mighty to Save
T:Harry Sanders
T:Robert W. Todd, 1878
T:Public Domain Courtesy of the Cyber Hymnal™
T:Public Domain Courtesy of the Cyber Hymnal™
C:Harry Sanders
Z:Public Domain
Z:Courtesy of the Cyber Hymnal™
%%score ( 1 2 ) 3
L:1/8
Q:1/4=115
M:4/4
K:Ab
V:1 treble 
V:2 treble 
V:3 bass 
V:1
 [CE]2 | [CE]2 [Ec]2 [DB]2 [DG]2 | [CA]4 [CE]2 [CE]2 | [DF]2 [FA]2 [Fd]2 [DF]2 | [CE]6 [EA]2 | %5
w: 1.~O|who is this that|com- eth From|E- dom’s crim- son|plain, With|
w: 2.~O|why is Thine ap-|par- el With|reek- ing gore all|dyed, Like|
w: 3.~O,|bleed- ing Lamb, my|Sav- ior, How|couldst Thou bear this|shame? “With|
 !>![EA]2 [EG]2 [EG]3 [EB] | !>![EB]2 [EA]2 [EA]3 [Ec] | [EB]2 [EG]2 [EG]2 [=DF]2 | E6 z2 | %9
w: wound- ed side, with|gar- ments dyed? O|tell me now thy|name.|
w: them that tread the|wine- press red? O|why this blood- y|tide?|
w: mer- cy fraught, Mine|own arm brought Sal-|va- tion in My|name:|
 [EB]3 [EA] [EG]2 [EG]2 | [Ec]3 [DB] [CA]2 [EA]2 | [FA]4 [_FB]4 | [Ec]6 z2 | %13
w: “I that saw thy|soul’s dis- tress, A|ran- som|gave;|
w: “I the wine- press|trod a- lone, ’Neath|darken- ing|skies;|
w: I the blood- y|fight have won, Con-|quered the|grave;|
 [CE]2 [CA]2 [Ec]2 [_Ge]2 | [Fe]2 [Fd]2 (c2 B2) | E [EA]3 [EB]4 | [EA]6 z2 || %17
w: I, that speak in|right- eous- ness, *|Might- y to|save.”|
w: Of the peo- ple|there was none *|Might- y to|save.”|
w: Now the year of|joy has come, *|Might- y to|save.”|
"^Refrain" E2 G>A (B4- | B8) | E2 A>B (c4- | c8) | [F=d]2 [Ad]>[Ad] !fermata![Ge]4 | %22
w: |||||
w: Might- y to save,||might- y to save,||Might- y to save,|
w: |||||
 [CE]2 [CA]2 [Ec]2 [_Ge]2 | [Fe]2 [Fd]2 (c2 B2) | E [EA]3 [EB]4 | [EA]6 |] %26
w: ||||
w: Lord I trust Thy|won- drous love, *|Might- y to|save.|
w: ||||
V:2
 x2 | x8 | x8 | x8 | x8 | x8 | x8 | x8 | E6 x2 | x8 | x8 | x8 | x8 | x8 | x4 F4 | E x7 | x8 || x8 | %18
 (F2 F>F G4) | x8 | (=E2 E>E F4) | x8 | x8 | x4 F4 | E x7 | x6 |] %26
V:3
 [A,,A,]2 | [A,,A,]2 [A,,A,]2 [E,G,]2 [E,B,]2 | [A,,A,]4 [A,,A,]2 [A,,A,]2 | %3
w: ~|~ ~ ~ ~|~ ~ ~|
 [D,A,]2 [D,A,]2 [D,A,]2 [D,A,]2 | [A,,A,]6 [A,,C]2 | [E,C]2 [E,B,]2 [E,B,]3 [E,D] | %6
w: ~ ~ ~ ~|~ ~|~ ~ ~ ~|
 [A,,D]2 [A,,C]2 [A,,C]3 [A,,A,] | [B,,G,]2 [B,,B,]2 [B,,B,]2 [B,,A,]2 | [E,G,]6 z2 | %9
w: ~ ~ ~ ~|~ ~ ~ ~|~|
 [E,D]3 [E,C] [E,B,]2 [E,B,]2 | [A,,A,]3 [A,,A,] [A,,A,]2 [A,,C]2 | [D,D]4 [D,D]4 | [A,,C]6 z2 | %13
w: ~ ~ ~ ~|~ ~ ~ ~|~ ~|~|
 [A,,A,]2 [A,,A,]2 [A,,A,]2 [A,,A,]2 | [D,A,]2 [D,A,]2 [D,D]4 | [E,C] [E,C]3 [E,D]4 | [A,,C]6 z2 || %17
w: ~ ~ ~ ~|~ ~ ~|~ ~ ~|~|
 z8 | [B,,=D]2 [B,,D]>[B,,D] [E,E]4 | z8 | [C,G,]2 [C,G,]>[C,G,] [F,A,]4 | %21
w: |Might- y to save,||Might- y to save,|
 [B,,B,]2 [B,,B,]>[B,,B,] !fermata![E,B,]4 | [A,,A,]2 [A,,A,]2 [A,,A,]2 [A,,A,]2 | %23
w: ||
 [D,A,]2 [D,A,]2 [D,D]4 | [E,C] [E,C]3 [E,D]4 | [A,,C]6 |] %26
w: |||

